app/assets/images/icon_generic.svg

<?xml version="1.0" encoding="UTF-8" standalone="no"?>
<!-- Created with Inkscape (http://www.inkscape.org/) -->

<svg
   xmlns:dc="http://purl.org/dc/elements/1.1/"
   xmlns:cc="http://creativecommons.org/ns#"
   xmlns:rdf="http://www.w3.org/1999/02/22-rdf-syntax-ns#"
   xmlns:svg="http://www.w3.org/2000/svg"
   xmlns="http://www.w3.org/2000/svg"
   xmlns:sodipodi="http://sodipodi.sourceforge.net/DTD/sodipodi-0.dtd"
   xmlns:inkscape="http://www.inkscape.org/namespaces/inkscape"
   width="92"
   height="28"
   viewBox="0 0 24.341666 7.4083335"
   version="1.1"
   id="svg8"
   inkscape:version="0.92.3 (2405546, 2018-03-11)"
   sodipodi:docname="icon_generic.svg">
  <defs
     id="defs2" />
  <sodipodi:namedview
     id="base"
     pagecolor="#ffffff"
     bordercolor="#666666"
     borderopacity="1.0"
     inkscape:pageopacity="0.0"
     inkscape:pageshadow="2"
     inkscape:zoom="10.291478"
     inkscape:cx="46.327287"
     inkscape:cy="15.672322"
     inkscape:document-units="px"
     inkscape:current-layer="layer1"
     showgrid="false"
     units="px"
     inkscape:showpageshadow="false"
     inkscape:window-width="1920"
     inkscape:window-height="1032"
     inkscape:window-x="0"
     inkscape:window-y="23"
     inkscape:window-maximized="1"
     showguides="false" />
  <metadata
     id="metadata5">
    <rdf:RDF>
      <cc:Work
         rdf:about="">
        <dc:format>image/svg+xml</dc:format>
        <dc:type
           rdf:resource="http://purl.org/dc/dcmitype/StillImage" />
        <dc:title></dc:title>
      </cc:Work>
    </rdf:RDF>
  </metadata>
  <g
     inkscape:label="Livello 1"
     inkscape:groupmode="layer"
     id="layer1"
     transform="translate(0,-289.59165)">
    <g
       aria-label="ALTRI"
       style="font-style:normal;font-weight:normal;font-size:5.15961409px;line-height:1.25;font-family:sans-serif;letter-spacing:0px;word-spacing:0px;fill:#666666;fill-opacity:1;stroke:none;stroke-width:0.32247588"
       id="text902">
      <path
         d="m 11.468145,293.73167 -0.413172,-1.19164 q -0.01764,-0.0529 -0.04535,-0.1814 -0.02771,-0.12848 -0.05795,-0.31491 -0.03275,0.17887 -0.06298,0.32247 -0.03023,0.14108 -0.04535,0.18895 l -0.398056,1.17653 z m -2.3480271,1.40328 1.4032741,-3.68832 h 0.901925 l 1.423428,3.68832 h -0.896886 l -0.299802,-0.78352 H 10.22359 l -0.2569729,0.78352 z"
         style="font-style:normal;font-variant:normal;font-weight:normal;font-stretch:normal;font-family:'Futura Hv BT';-inkscape-font-specification:'Futura Hv BT';fill:#666666;stroke-width:0.32247588"
         id="path1143" />
      <path
         d="m 13.236724,295.13495 v -3.68832 h 0.788554 v 3.01817 h 1.259672 v 0.67015 z"
         style="font-style:normal;font-variant:normal;font-weight:normal;font-stretch:normal;font-family:'Futura Hv BT';-inkscape-font-specification:'Futura Hv BT';fill:#666666;stroke-width:0.32247588"
         id="path1145" />
      <path
         d="m 16.882213,292.11678 v 3.01817 H 16.09114 v -3.01817 h -0.901925 v -0.67015 h 2.599962 v 0.67015 z"
         style="font-style:normal;font-variant:normal;font-weight:normal;font-stretch:normal;font-family:'Futura Hv BT';-inkscape-font-specification:'Futura Hv BT';fill:#666666;stroke-width:0.32247588"
         id="path1147" />
      <path
         d="m 20.973626,295.13495 h -0.909483 l -0.969947,-1.72323 v 1.72323 h -0.788554 v -3.68832 h 1.128665 q 0.672665,0 1.007737,0.26201 0.335073,0.25949 0.335073,0.78352 0,0.38042 -0.22926,0.64999 -0.22926,0.26957 -0.592046,0.31492 z m -1.87943,-2.11625 h 0.118409 q 0.478675,0 0.632355,-0.10329 0.15368,-0.10581 0.15368,-0.36531 0,-0.27209 -0.166277,-0.38546 -0.163757,-0.11589 -0.619758,-0.11589 h -0.118409 z"
         style="font-style:normal;font-variant:normal;font-weight:normal;font-stretch:normal;font-family:'Futura Hv BT';-inkscape-font-specification:'Futura Hv BT';fill:#666666;stroke-width:0.32247588"
         id="path1149" />
      <path
         d="m 21.444743,295.13495 v -3.68832 h 0.788554 v 3.68832 z"
         style="font-style:normal;font-variant:normal;font-weight:normal;font-stretch:normal;font-family:'Futura Hv BT';-inkscape-font-specification:'Futura Hv BT';fill:#666666;stroke-width:0.32247588"
         id="path1151" />
    </g>
    <path
       style="color:#000000;font-style:normal;font-variant:normal;font-weight:normal;font-stretch:normal;font-size:medium;line-height:normal;font-family:sans-serif;font-variant-ligatures:normal;font-variant-position:normal;font-variant-caps:normal;font-variant-numeric:normal;font-variant-alternates:normal;font-feature-settings:normal;text-indent:0;text-align:start;text-decoration:none;text-decoration-line:none;text-decoration-style:solid;text-decoration-color:#000000;letter-spacing:normal;word-spacing:normal;text-transform:none;writing-mode:lr-tb;direction:ltr;text-orientation:mixed;dominant-baseline:auto;baseline-shift:baseline;text-anchor:start;white-space:normal;shape-padding:0;clip-rule:nonzero;display:inline;overflow:visible;visibility:visible;opacity:1;isolation:auto;mix-blend-mode:normal;color-interpolation:sRGB;color-interpolation-filters:linearRGB;solid-color:#000000;solid-opacity:1;vector-effect:none;fill:#666666;fill-opacity:1;fill-rule:nonzero;stroke:none;stroke-width:0.32130393;stroke-linecap:butt;stroke-linejoin:miter;stroke-miterlimit:4;stroke-dasharray:none;stroke-dashoffset:0;stroke-opacity:1;color-rendering:auto;image-rendering:auto;shape-rendering:auto;text-rendering:auto;enable-background:accumulate"
       d="M 3.7050781,289.5918 C 1.661224,289.5918 -3.0569724e-6,291.25107 0,293.29492 2.7108947e-6,295.33877 1.6612281,297 3.7050781,297 c 2.04385,0 3.7031223,-1.66123 3.703125,-3.70508 3.1e-6,-2.04385 -1.6592709,-3.70312 -3.703125,-3.70312 z m 0,0.32031 c 1.8702084,0 3.3828153,1.5126 3.3828125,3.38281 -2.5e-6,1.87021 -1.5126079,3.38281 -3.3828125,3.38281 -1.8702046,0 -3.38280999,-1.5126 -3.38281248,-3.38281 -2.79e-6,-1.87021 1.51260408,-3.38281 3.38281248,-3.38281 z"
       id="path904"
       inkscape:connector-curvature="0" />
    <g
       transform="matrix(0.75668648,0,0,0.75668648,0.90127381,71.362823)"
       id="layer1-0"
       inkscape:label="Livello 1">
      <path
         id="rect842-6"
         transform="matrix(0.26458333,0,0,0.26458333,0,289.59165)"
         d="M 2.0488281,2.1113281 V 25.888672 H 25.951172 V 2.1113281 Z m 5.3125,16.1289059 c 0.2340087,0 0.4652855,0.02622 0.6914063,0.07617 0.22875,0.04733 0.4504121,0.119513 0.6660156,0.216797 V 20.66992 C 8.5294396,20.488499 8.3358702,20.353068 8.1386719,20.263672 7.9414736,20.174275 7.7338578,20.130859 7.515625,20.130859 c -0.3391811,0 -0.6125969,0.104109 -0.8203125,0.314453 -0.2050862,0.207716 -0.3066406,0.484963 -0.3066406,0.832032 0,0.339181 0.097723,0.610043 0.2949219,0.8125 0.1971983,0.202457 0.4616755,0.304687 0.7929687,0.304687 0.1998276,0 0.4023356,-0.04282 0.6074219,-0.126953 0.2077155,-0.08677 0.4332084,-0.223475 0.6777344,-0.410156 l -0.066406,2.173828 c -0.2261207,0.09203 -0.4516136,0.16038 -0.6777344,0.205078 -0.2261207,0.04733 -0.4535667,0.07031 -0.6796875,0.07031 -0.2813362,0 -0.5521982,-0.03065 -0.8125,-0.09375 -0.260302,-0.0631 -0.4947335,-0.153839 -0.7050784,-0.269529 -0.5100863,-0.294482 -0.8972252,-0.665622 -1.1601563,-1.115234 -0.2603017,-0.449612 -0.390625,-0.967074 -0.390625,-1.550781 0,-0.431207 0.073462,-0.831115 0.2207032,-1.199219 0.1498707,-0.368104 0.3683782,-0.69132 0.6523437,-0.972656 0.2865949,-0.283966 0.6161961,-0.499919 0.9921875,-0.644531 0.3786208,-0.147242 0.7874676,-0.220704 1.2265625,-0.220704 z m 5.1523439,0.0078 c 0.591595,0 1.116042,0.130323 1.576172,0.390625 0.460129,0.257672 0.837053,0.63715 1.128906,1.136719 l -1.849609,0.685547 c -0.09729,-0.160388 -0.214839,-0.280496 -0.351563,-0.359376 -0.136724,-0.07888 -0.292586,-0.117187 -0.46875,-0.117187 -0.307629,0 -0.554229,0.117554 -0.738281,0.351563 -0.181423,0.234008 -0.271485,0.547009 -0.271485,0.941406 1e-6,0.407543 0.09134,0.725051 0.275391,0.951172 0.184052,0.223491 0.444698,0.333984 0.78125,0.333984 0.199828,0 0.362751,-0.04086 0.486328,-0.125 0.126207,-0.08414 0.200946,-0.201692 0.22461,-0.351562 h -0.904297 v -1.357422 h 3.191406 c 0.0053,0.118319 0.0091,0.20778 0.01172,0.265625 0.0026,0.05784 0.0039,0.109598 0.0039,0.154297 0,0.331293 -0.0326,0.632801 -0.0957,0.90625 -0.0631,0.273448 -0.154442,0.516217 -0.275391,0.726562 -0.294483,0.49431 -0.675237,0.871835 -1.140625,1.134766 -0.465388,0.260301 -0.992389,0.390625 -1.583984,0.390625 -0.436466,0 -0.842759,-0.07218 -1.21875,-0.216797 C 10.92156,23.942602 10.590005,23.727325 10.300781,23.443359 10.014186,23.159394 9.797632,22.834224 9.6503906,22.46875 9.5031492,22.103276 9.4296875,21.705921 9.4296875,21.277344 c 0,-0.431207 0.073462,-0.829839 0.2207031,-1.195313 0.1498707,-0.368103 0.3664254,-0.690043 0.6503904,-0.96875 0.286595,-0.281336 0.618149,-0.49729 0.994141,-0.644531 0.375991,-0.147241 0.782284,-0.220703 1.21875,-0.220703 z m 3.892578,0.130859 h 2.109375 v 5.773438 H 16.40625 Z m 3.226562,0 h 2.078126 v 3.900391 h 2.019531 v 1.873047 h -4.097657 z"
         style="opacity:1;fill:#e3010f;fill-opacity:1;stroke:none;stroke-width:1.00157475;stroke-linecap:round;stroke-linejoin:round;stroke-miterlimit:4;stroke-dasharray:none;stroke-opacity:1"
         inkscape:connector-curvature="0" />
      <g
         id="text846-0"
         style="font-style:normal;font-weight:normal;font-size:2.61666107px;line-height:1.25;font-family:sans-serif;letter-spacing:0px;word-spacing:0px;fill:#000000;fill-opacity:1;stroke:none;stroke-width:0.12265598"
         transform="rotate(15)"
         aria-label="UVL" />
    </g>
  </g>
</svg>

<?xml version="1.0" encoding="UTF-8" standalone="no"?>
<!-- Created with Inkscape (http://www.inkscape.org/) -->

<svg
   xmlns:dc="http://purl.org/dc/elements/1.1/"
   xmlns:cc="http://creativecommons.org/ns#"
   xmlns:rdf="http://www.w3.org/1999/02/22-rdf-syntax-ns#"
   xmlns:svg="http://www.w3.org/2000/svg"
   xmlns="http://www.w3.org/2000/svg"
   xmlns:sodipodi="http://sodipodi.sourceforge.net/DTD/sodipodi-0.dtd"
   xmlns:inkscape="http://www.inkscape.org/namespaces/inkscape"
   width="28"
   height="28"
   viewBox="0 0 7.4083332 7.4083335"
   version="1.1"
   id="svg8"
   inkscape:version="0.92.3 (2405546, 2018-03-11)"
   sodipodi:docname="icon_generic.svg">
  <defs
     id="defs2" />
  <sodipodi:namedview
     id="base"
     pagecolor="#ffffff"
     bordercolor="#666666"
     borderopacity="1.0"
     inkscape:pageopacity="0.0"
     inkscape:pageshadow="2"
     inkscape:zoom="11.907173"
     inkscape:cx="-4.8284068"
     inkscape:cy="10.596881"
     inkscape:document-units="px"
     inkscape:current-layer="layer1"
     showgrid="false"
     units="px"
     inkscape:showpageshadow="false"
     inkscape:window-width="1920"
     inkscape:window-height="1026"
     inkscape:window-x="0"
     inkscape:window-y="29"
     inkscape:window-maximized="1"
     showguides="false" />
  <metadata
     id="metadata5">
    <rdf:RDF>
      <cc:Work
         rdf:about="">
        <dc:format>image/svg+xml</dc:format>
        <dc:type
           rdf:resource="http://purl.org/dc/dcmitype/StillImage" />
        <dc:title></dc:title>
      </cc:Work>
    </rdf:RDF>
  </metadata>
  <g
     inkscape:label="Livello 1"
     inkscape:groupmode="layer"
     id="layer1"
     transform="translate(0,-289.59165)">
    <path
       style="opacity:1;fill:#e3010f;fill-opacity:1;stroke:none;stroke-width:1.00157475;stroke-linecap:round;stroke-linejoin:round;stroke-miterlimit:4;stroke-dasharray:none;stroke-opacity:1"
       d="M 2.0488281 2.1113281 L 2.0488281 25.888672 L 25.951172 25.888672 L 25.951172 2.1113281 L 2.0488281 2.1113281 z M 7.3613281 18.240234 C 7.5953368 18.240234 7.8266136 18.266449 8.0527344 18.316406 C 8.2814844 18.363734 8.5031465 18.435919 8.71875 18.533203 L 8.71875 20.669922 C 8.5294396 20.488499 8.3358702 20.353068 8.1386719 20.263672 C 7.9414736 20.174275 7.7338578 20.130859 7.515625 20.130859 C 7.1764439 20.130859 6.9030281 20.234968 6.6953125 20.445312 C 6.4902263 20.653028 6.3886719 20.930275 6.3886719 21.277344 C 6.3886719 21.616525 6.4863954 21.887387 6.6835938 22.089844 C 6.8807921 22.292301 7.1452693 22.394531 7.4765625 22.394531 C 7.6763901 22.394531 7.8788981 22.351716 8.0839844 22.267578 C 8.2916999 22.180811 8.5171928 22.044103 8.7617188 21.857422 L 8.6953125 24.03125 C 8.4691918 24.123276 8.2436989 24.19163 8.0175781 24.236328 C 7.7914574 24.283656 7.5640114 24.306641 7.3378906 24.306641 C 7.0565544 24.306641 6.7856924 24.275994 6.5253906 24.212891 C 6.2650889 24.149787 6.0306574 24.059049 5.8203125 23.943359 C 5.3102262 23.648877 4.9230873 23.277737 4.6601562 22.828125 C 4.3998545 22.378513 4.2695312 21.861051 4.2695312 21.277344 C 4.2695312 20.846137 4.342993 20.446229 4.4902344 20.078125 C 4.6401051 19.710021 4.8586126 19.386805 5.1425781 19.105469 C 5.429173 18.821503 5.7587742 18.60555 6.1347656 18.460938 C 6.5133864 18.313696 6.9222332 18.240234 7.3613281 18.240234 z M 12.513672 18.248047 C 13.105267 18.248047 13.629714 18.37837 14.089844 18.638672 C 14.549973 18.896344 14.926897 19.275822 15.21875 19.775391 L 13.369141 20.460938 C 13.271856 20.30055 13.154302 20.180442 13.017578 20.101562 C 12.880854 20.022683 12.724992 19.984375 12.548828 19.984375 C 12.241199 19.984375 11.994599 20.101929 11.810547 20.335938 C 11.629124 20.569946 11.539062 20.882947 11.539062 21.277344 C 11.539063 21.684887 11.630401 22.002395 11.814453 22.228516 C 11.998505 22.452007 12.259151 22.5625 12.595703 22.5625 C 12.795531 22.5625 12.958454 22.521638 13.082031 22.4375 C 13.208238 22.353362 13.282977 22.235808 13.306641 22.085938 L 12.402344 22.085938 L 12.402344 20.728516 L 15.59375 20.728516 C 15.599009 20.846835 15.602839 20.936296 15.605469 20.994141 C 15.608098 21.051985 15.609375 21.103739 15.609375 21.148438 C 15.609375 21.479731 15.576775 21.781239 15.513672 22.054688 C 15.450568 22.328136 15.35923 22.570905 15.238281 22.78125 C 14.943798 23.27556 14.563044 23.653085 14.097656 23.916016 C 13.632268 24.176317 13.105267 24.306641 12.513672 24.306641 C 12.077206 24.306641 11.670913 24.234456 11.294922 24.089844 C 10.92156 23.942602 10.590005 23.727325 10.300781 23.443359 C 10.014186 23.159394 9.797632 22.834224 9.6503906 22.46875 C 9.5031492 22.103276 9.4296875 21.705921 9.4296875 21.277344 C 9.4296875 20.846137 9.5031492 20.447505 9.6503906 20.082031 C 9.8002613 19.713928 10.016816 19.391988 10.300781 19.113281 C 10.587376 18.831945 10.91893 18.615991 11.294922 18.46875 C 11.670913 18.321509 12.077206 18.248047 12.513672 18.248047 z M 16.40625 18.378906 L 18.515625 18.378906 L 18.515625 24.152344 L 16.40625 24.152344 L 16.40625 18.378906 z M 19.632812 18.378906 L 21.710938 18.378906 L 21.710938 22.279297 L 23.730469 22.279297 L 23.730469 24.152344 L 19.632812 24.152344 L 19.632812 18.378906 z "
       transform="matrix(0.26458333,0,0,0.26458333,0,289.59165)"
       id="rect842" />
    <g
       aria-label="UVL"
       transform="rotate(15)"
       style="font-style:normal;font-weight:normal;font-size:2.61666107px;line-height:1.25;font-family:sans-serif;letter-spacing:0px;word-spacing:0px;fill:#000000;fill-opacity:1;stroke:none;stroke-width:0.12265598"
       id="text846" />
  </g>
</svg>
